flaticon/religion/candles.svg

<svg xmlns="http://www.w3.org/2000/svg" width="32" height="32" viewBox="0 0 24 24">
    <path d="M19.601562 12.398438L19.871094 12.398438C19.910156 12.398438 19.945312 12.386719 19.984375 12.382812 20.792969 12.308594 21.527344 11.871094 21.972656 11.175781 22.464844 10.402344 22.535156 9.441406 22.160156 8.605469 21.394531 6.894531 20.148438 4.425781 20.050781 4.230469 20.042969 4.21875 20.039062 4.207031 20.03125 4.195312 20.023438 4.179688 20.011719 4.164062 20 4.148438 19.976562 4.125 19.953125 4.097656 19.925781 4.078125 19.867188 4.035156 19.792969 4.007812 19.71875 4 19.644531 3.996094 19.5625 4.011719 19.492188 4.050781 19.414062 4.09375 19.355469 4.160156 19.320312 4.238281 19.191406 4.492188 17.941406 6.914062 17.1875 8.609375 16.816406 9.441406 16.890625 10.394531 17.382812 11.164062 17.875 11.925781 18.703125 12.390625 19.601562 12.398438zM20.242188 11.382812C20.171875 11.488281 20.085938 11.554688 19.976562 11.585938 19.910156 11.59375 19.839844 11.597656 19.769531 11.597656L19.703125 11.597656C19.527344 11.597656 19.390625 11.519531 19.289062 11.363281 19.230469 11.273438 19.144531 11.082031 19.246094 10.855469 19.394531 10.519531 19.570312 10.144531 19.761719 9.734375 19.945312 10.125 20.121094 10.503906 20.28125 10.863281 20.386719 11.097656 20.300781 11.289062 20.242188 11.382812zM17.917969 8.933594C18.4375 7.757812 19.207031 6.222656 19.683594 5.285156 20.128906 6.175781 20.898438 7.742188 21.429688 8.933594 21.695312 9.523438 21.644531 10.199219 21.296875 10.742188 21.246094 10.824219 21.1875 10.898438 21.125 10.972656 21.113281 10.835938 21.078125 10.6875 21.007812 10.535156 20.742188 9.941406 20.4375 9.285156 20.125 8.628906 20.058594 8.488281 19.917969 8.402344 19.765625 8.402344 19.765625 8.402344 19.765625 8.402344 19.761719 8.402344 19.609375 8.402344 19.46875 8.488281 19.402344 8.625 19.054688 9.347656 18.757812 9.988281 18.515625 10.53125 18.417969 10.75 18.390625 10.953125 18.402344 11.132812 18.273438 11.019531 18.15625 10.886719 18.058594 10.734375 17.710938 10.191406 17.65625 9.519531 17.917969 8.933594zM4 12.398438L4.269531 12.398438C4.308594 12.398438 4.347656 12.386719 4.382812 12.382812 5.195312 12.308594 5.925781 11.871094 6.371094 11.175781 6.863281 10.402344 6.9375 9.441406 6.5625 8.605469 5.792969 6.894531 4.546875 4.425781 4.449219 4.230469 4.445312 4.21875 4.4375 4.207031 4.433594 4.195312 4.421875 4.179688 4.410156 4.164062 4.398438 4.148438 4.378906 4.125 4.355469 4.097656 4.328125 4.078125 4.265625 4.035156 4.195312 4.007812 4.117188 4 4.042969 3.996094 3.964844 4.011719 3.894531 4.050781 3.8125 4.09375 3.757812 4.160156 3.722656 4.238281 3.589844 4.492188 2.339844 6.914062 1.585938 8.609375 1.214844 9.441406 1.289062 10.394531 1.785156 11.164062 2.273438 11.925781 3.101562 12.390625 4 12.398438zM4.640625 11.382812C4.574219 11.488281 4.484375 11.554688 4.378906 11.585938 4.308594 11.59375 4.238281 11.597656 4.167969 11.597656L4.105469 11.597656C3.929688 11.597656 3.789062 11.519531 3.691406 11.363281 3.628906 11.273438 3.546875 11.082031 3.648438 10.855469 3.796875 10.519531 3.96875 10.144531 4.164062 9.734375 4.34375 10.125 4.519531 10.503906 4.679688 10.863281 4.785156 11.097656 4.699219 11.289062 4.640625 11.382812zM2.316406 8.933594C2.839844 7.757812 3.609375 6.222656 4.082031 5.285156 4.527344 6.175781 5.296875 7.742188 5.832031 8.933594 6.09375 9.523438 6.046875 10.199219 5.695312 10.742188 5.644531 10.824219 5.585938 10.898438 5.523438 10.972656 5.511719 10.835938 5.476562 10.6875 5.410156 10.535156 5.144531 9.941406 4.835938 9.285156 4.523438 8.628906 4.457031 8.488281 4.316406 8.402344 4.164062 8.402344 4.011719 8.402344 3.871094 8.488281 3.804688 8.625 3.457031 9.347656 3.15625 9.988281 2.914062 10.53125 2.820312 10.75 2.792969 10.953125 2.800781 11.132812 2.671875 11.019531 2.554688 10.886719 2.457031 10.734375 2.109375 10.191406 2.058594 9.519531 2.316406 8.933594zM11.34375 5.597656C11.34375 5.597656 11.347656 5.597656 11.347656 5.597656L11.601562 5.597656C12.390625 5.589844 12.820312 5.101562 13.007812 4.808594 13.164062 4.558594 13.496094 3.890625 13.132812 3.082031 12.773438 2.285156 12.328125 1.328125 11.804688.226562 11.742188.0898438 11.601562 0 11.445312 0 11.292969 0 11.152344.0898438 11.085938.226562 10.558594 1.320312 10.109375 2.28125 9.757812 3.078125 9.402344 3.875 9.734375 4.539062 9.894531 4.785156 10.085938 5.085938 10.527344 5.589844 11.34375 5.597656zM10.488281 3.402344C10.753906 2.800781 11.074219 2.105469 11.445312 1.332031 11.8125 2.109375 12.132812 2.808594 12.402344 3.410156 12.597656 3.847656 12.441406 4.207031 12.332031 4.378906 12.210938 4.566406 11.984375 4.792969 11.597656 4.796875L11.351562 4.796875C10.933594 4.792969 10.695312 4.554688 10.566406 4.351562 10.476562 4.214844 10.292969 3.84375 10.488281 3.402344zM14.40625 11.199219C14.199219 11.171875 13.601562 10.503906 13.601562 9.601562L13.601562 6.984375C13.601562 6.621094 13.4375 6.285156 13.152344 6.0625 12.863281 5.839844 12.5 5.761719 12.148438 5.847656L10.484375 6.265625C9.964844 6.394531 9.601562 6.859375 9.601562 7.398438L9.601562 8C9.601562 8.902344 9 9.570312 8.800781 9.601562 8.578125 9.601562 8.398438 9.777344 8.398438 10 8.398438 10.222656 8.578125 10.398438 8.800781 10.398438 9.0625 10.398438 9.34375 10.25 9.601562 10.003906L9.601562 10.800781C9.601562 11.703125 9 12.371094 8.800781 12.398438 8.578125 12.398438 8.398438 12.578125 8.398438 12.800781 8.398438 13.019531 8.578125 13.199219 8.800781 13.199219 9.0625 13.199219 9.34375 13.050781 9.601562 12.800781L9.601562 24 13.601562 24 13.601562 11.601562C13.855469 11.851562 14.136719 12 14.398438 12 14.621094 12 14.804688 11.820312 14.804688 11.601562 14.804688 11.378906 14.625 11.199219 14.40625 11.199219zM12.800781 23.199219L10.398438 23.199219 10.398438 7.398438C10.398438 7.230469 10.515625 7.082031 10.679688 7.042969L12.339844 6.625C12.453125 6.597656 12.566406 6.621094 12.65625 6.691406 12.75 6.761719 12.800781 6.867188 12.800781 6.984375zM6.738281 12.800781L1.660156 12.800781C1.554688 12.800781 1.453125 12.8125 1.351562 12.832031 1.316406 12.835938 1.285156 12.847656 1.253906 12.855469 1.1875 12.875 1.121094 12.890625 1.058594 12.917969 1.023438 12.929688.988281 12.949219.953125 12.964844.898438 12.992188.84375 13.019531.792969 13.050781.757812 13.074219.722656 13.09375.691406 13.117188.644531 13.152344.601562 13.191406.558594 13.230469.523438 13.257812.492188 13.285156.460938 13.316406.425781 13.355469.394531 13.394531.363281 13.4375.230469 13.605469.128906 13.800781.0703125 14.011719.0625 14.027344.0585938 14.042969.0546875 14.058594L.046875 14.082031C.0429688 14.101562.0351562 14.121094.03125 14.144531L.0195312 14.1875.0273438 14.203125C.0117188 14.285156 0 14.371094 0 14.460938L0 24 8.398438 24 8.398438 14.460938C8.398438 13.542969 7.65625 12.800781 6.738281 12.800781zM7.601562 23.199219L.800781 23.199219.800781 18.609375C.949219 18.691406 1.136719 18.734375 1.367188 18.738281 1.5 18.746094 1.96875 18.75 2.410156 18.375 2.878906 17.972656 3.136719 17.292969 3.171875 16.359375 3.171875 16.355469 3.179688 16.335938 3.210938 16.324219 3.34375 16.261719 3.476562 16.25 3.609375 16.289062 3.667969 16.304688 3.6875 16.328125 3.691406 16.320312 3.523438 16.96875 3.402344 17.847656 3.796875 18.359375 3.921875 18.523438 4.160156 18.722656 4.566406 18.738281 4.617188 18.75 4.671875 18.757812 4.730469 18.757812 4.875 18.757812 5.046875 18.71875 5.207031 18.609375 5.65625 18.316406 5.894531 17.640625 5.941406 16.542969 5.941406 16.507812 6.007812 16.433594 6.136719 16.417969 6.175781 16.410156 6.21875 16.40625 6.257812 16.402344 6.382812 16.390625 6.472656 16.4375 6.519531 16.480469 6.53125 16.492188 6.558594 16.519531 6.558594 16.546875 6.539062 16.878906 6.523438 17.335938 6.546875 17.636719 6.582031 18.121094 7.070312 18.433594 7.601562 18.566406zM7.601562 17.730469C7.457031 17.671875 7.363281 17.605469 7.34375 17.574219 7.328125 17.375 7.335938 17.023438 7.355469 16.585938 7.371094 16.335938 7.269531 16.089844 7.074219 15.90625 6.847656 15.683594 6.519531 15.574219 6.183594 15.605469 6.132812 15.609375 6.078125 15.617188 6.027344 15.625 5.53125 15.691406 5.160156 16.066406 5.140625 16.511719 5.128906 16.78125 5.121094 17.054688 5.0625 17.316406 5.023438 17.484375 4.90625 17.96875 4.683594 17.949219 4.523438 17.933594 4.410156 17.90625 4.355469 17.742188 4.316406 17.617188 4.328125 17.476562 4.332031 17.34375 4.339844 17.066406 4.394531 16.789062 4.464844 16.519531 4.578125 16.089844 4.296875 15.648438 3.824219 15.515625 3.703125 15.480469 3.582031 15.464844 3.457031 15.464844 3.261719 15.464844 3.066406 15.507812 2.875 15.59375 2.574219 15.734375 2.382812 16.015625 2.371094 16.328125 2.351562 16.875 2.269531 17.742188 1.617188 17.894531 1.464844 17.929688 1.300781 17.914062 1.152344 17.855469 1.0625 17.816406.824219 17.707031.800781 17.601562.789062 17.554688.808594 15.859375.867188 14.136719.898438 14.0625.941406 13.992188.992188 13.925781.996094 13.921875 1 13.914062 1.003906 13.910156 1.105469 13.789062 1.234375 13.703125 1.382812 13.652344 1.398438 13.644531 1.414062 13.640625 1.429688 13.636719 1.503906 13.613281 1.582031 13.601562 1.660156 13.601562L6.738281 13.601562C7.214844 13.601562 7.601562 13.984375 7.601562 14.460938zM22.339844 12.800781L16.460938 12.800781C15.542969 12.800781 14.800781 13.542969 14.800781 14.460938L14.800781 24 24 24 24 14.460938C24 13.542969 23.253906 12.800781 22.339844 12.800781zM23.199219 23.199219L15.601562 23.199219 15.601562 18.480469C16.144531 18.300781 16.46875 18.007812 16.503906 17.640625 16.519531 17.480469 16.519531 17.316406 16.515625 17.15625 16.511719 16.988281 16.5 16.820312 16.488281 16.652344 16.484375 16.621094 16.484375 16.585938 16.496094 16.554688 16.515625 16.503906 16.566406 16.476562 16.617188 16.457031 16.816406 16.378906 17.042969 16.386719 17.246094 16.449219 17.292969 16.464844 17.339844 16.480469 17.375 16.515625 17.441406 16.574219 17.414062 16.65625 17.421875 16.738281 17.429688 16.816406 17.4375 16.898438 17.445312 16.980469 17.464844 17.144531 17.492188 17.308594 17.53125 17.472656 17.605469 17.785156 17.734375 18.09375 17.941406 18.339844 18.109375 18.539062 18.34375 18.6875 18.601562 18.734375 18.871094 18.78125 19.199219 18.746094 19.453125 18.644531 19.636719 18.570312 19.800781 18.449219 19.917969 18.289062 20.300781 17.769531 20.167969 16.957031 19.980469 16.347656 20.003906 16.328125 20.046875 16.308594 20.113281 16.292969 20.308594 16.246094 20.507812 16.261719 20.699219 16.332031 20.75 16.351562 20.769531 16.375 20.773438 16.367188 20.8125 17.226562 21.074219 17.875 21.550781 18.285156 22.09375 18.753906 22.730469 18.746094 22.867188 18.738281 22.96875 18.738281 23.082031 18.730469 23.199219 18.710938zM23.191406 17.890625C23.1875 17.890625 23.121094 17.9375 22.851562 17.9375L22.8125 17.941406C22.8125 17.941406 22.40625 17.96875 22.074219 17.679688 21.769531 17.417969 21.601562 16.960938 21.574219 16.324219 21.558594 16 21.332031 15.71875 20.980469 15.585938 20.644531 15.457031 20.28125 15.429688 19.933594 15.511719 19.636719 15.578125 19.394531 15.746094 19.265625 15.96875 19.164062 16.144531 19.144531 16.347656 19.203125 16.539062 19.289062 16.808594 19.359375 17.09375 19.363281 17.378906 19.367188 17.539062 19.351562 17.742188 19.222656 17.855469 19.085938 17.976562 18.769531 18.003906 18.625 17.894531 18.519531 17.8125 18.457031 17.6875 18.40625 17.566406 18.296875 17.304688 18.25 17.011719 18.226562 16.730469 18.21875 16.65625 18.214844 16.582031 18.210938 16.507812 18.1875 16.050781 17.769531 15.6875 17.195312 15.621094 17.136719 15.617188 17.074219 15.609375 17.015625 15.605469 16.972656 15.601562 16.933594 15.601562 16.894531 15.601562 16.523438 15.601562 16.175781 15.730469 15.949219 15.957031 15.769531 16.132812 15.675781 16.359375 15.691406 16.59375 15.71875 17.003906 15.722656 17.339844 15.710938 17.539062 15.691406 17.558594 15.65625 17.585938 15.601562 17.617188 15.601562 17.617188 15.601562 14.460938 15.601562 14.457031 15.605469 13.984375 16.015625 13.601562 16.519531 13.601562L22.339844 13.601562C22.8125 13.601562 23.199219 13.984375 23.199219 14.460938 23.199219 14.460938 23.183594 17.875 23.191406 17.890625zM23.191406 17.890625"/>
</svg>

<svg xmlns="http://www.w3.org/2000/svg" width="32" height="32" viewBox="0 0 24 24">
    <path d="M19.602 12.398h.27c.038 0 .073-.011.112-.015a2.642 2.642 0 0 0 1.989-1.207 2.71 2.71 0 0 0 .187-2.57c-.765-1.711-2.012-4.18-2.11-4.376-.007-.011-.01-.023-.019-.035A.326.326 0 0 0 20 4.148c-.023-.023-.047-.05-.074-.07A.432.432 0 0 0 19.719 4a.428.428 0 0 0-.227.05.4.4 0 0 0-.172.188c-.129.254-1.379 2.676-2.133 4.371a2.69 2.69 0 0 0 .196 2.555 2.67 2.67 0 0 0 2.219 1.234zm.64-1.015a.466.466 0 0 1-.265.203 1.788 1.788 0 0 1-.207.012h-.067a.47.47 0 0 1-.414-.235.524.524 0 0 1-.043-.508c.149-.335.324-.71.516-1.12.183.39.36.769.52 1.128a.537.537 0 0 1-.04.52zm-2.324-2.45c.52-1.175 1.289-2.71 1.766-3.648.445.89 1.214 2.457 1.746 3.649a1.898 1.898 0 0 1-.305 2.039 1.308 1.308 0 0 0-.117-.438c-.266-.594-.57-1.25-.883-1.906a.396.396 0 0 0-.36-.227h-.003a.4.4 0 0 0-.36.223 73.847 73.847 0 0 0-.886 1.906 1.258 1.258 0 0 0-.114.602 1.895 1.895 0 0 1-.484-2.2zm0 0M4 12.398h.27c.039 0 .078-.011.113-.015a2.635 2.635 0 0 0 1.988-1.207 2.71 2.71 0 0 0 .191-2.57C5.793 6.894 4.547 4.425 4.45 4.23c-.004-.011-.011-.023-.015-.035l-.036-.047a.4.4 0 0 0-.07-.07.446.446 0 0 0-.21-.078.414.414 0 0 0-.223.05.38.38 0 0 0-.172.188C3.59 4.492 2.34 6.914 1.586 8.61a2.68 2.68 0 0 0 .2 2.555A2.658 2.658 0 0 0 4 12.398zm.64-1.015a.458.458 0 0 1-.261.203c-.07.008-.14.012-.211.012h-.063a.465.465 0 0 1-.414-.235.514.514 0 0 1-.043-.508c.149-.335.32-.71.516-1.12.18.39.356.769.516 1.128a.537.537 0 0 1-.04.52zm-2.324-2.45c.524-1.175 1.293-2.71 1.766-3.648.445.89 1.215 2.457 1.75 3.649a1.898 1.898 0 0 1-.309 2.039 1.395 1.395 0 0 0-.113-.438 91.213 91.213 0 0 0-.887-1.906.4.4 0 1 0-.719-.004 75.288 75.288 0 0 0-.89 1.906 1.36 1.36 0 0 0-.113.602 1.906 1.906 0 0 1-.484-2.2zm0 0M11.344 5.598h.258c.789-.008 1.218-.496 1.406-.79.156-.25.488-.917.125-1.726-.36-.797-.805-1.754-1.328-2.855a.394.394 0 0 0-.36-.227.403.403 0 0 0-.36.227 96.36 96.36 0 0 0-1.327 2.851 1.78 1.78 0 0 0 .137 1.707c.19.3.632.805 1.449.813zm-.856-2.196c.266-.601.586-1.297.957-2.07.367.777.688 1.477.957 2.078.196.438.04.797-.07.969a.862.862 0 0 1-.734.418h-.246a.907.907 0 0 1-.786-.445.994.994 0 0 1-.078-.95zm0 0M14.406 11.2c-.207-.028-.804-.696-.804-1.598V6.984a1.175 1.175 0 0 0-1.453-1.137l-1.665.419c-.52.129-.882.593-.882 1.132V8c0 .902-.602 1.57-.801 1.602a.398.398 0 1 0 0 .796c.261 0 .543-.148.8-.394v.797c0 .902-.601 1.57-.8 1.597a.401.401 0 0 0 0 .8c.261.001.543-.147.8-.397V24h4V11.602c.254.25.536.398.797.398.223 0 .407-.18.407-.398a.401.401 0 0 0-.399-.403zm-1.605 12h-2.403V7.397c0-.168.118-.316.282-.355l1.66-.418a.366.366 0 0 1 .316.066c.094.07.145.176.145.293zm0 0M6.738 12.8H1.66c-.105 0-.207.012-.308.032-.036.004-.067.016-.098.023-.067.02-.133.036-.195.063-.036.012-.07.031-.106.047-.055.027-.11.055-.16.086-.035.023-.07.043-.102.066-.046.035-.09.074-.132.113a1.024 1.024 0 0 0-.098.086 1.47 1.47 0 0 0-.098.121 1.633 1.633 0 0 0-.293.575c-.008.015-.011.031-.015.047l-.008.023c-.004.02-.012.04-.016.063l-.011.043.007.015a1.372 1.372 0 0 0-.027.258V24h8.398v-9.54c0-.917-.742-1.66-1.66-1.66zm.864 10.4H.8v-4.59c.148.081.336.124.566.128.133.008.602.012 1.043-.363.469-.402.727-1.082.762-2.016 0-.004.008-.023.039-.035a.546.546 0 0 1 .398-.035c.059.016.079.04.082.031-.168.649-.289 1.528.106 2.04a.978.978 0 0 0 .77.378c.05.012.105.02.163.02.145 0 .317-.04.477-.149.45-.293.688-.968.734-2.066 0-.035.067-.11.196-.125.039-.008.082-.012.12-.016a.339.339 0 0 1 .263.078c.011.012.039.04.039.067-.02.332-.036.789-.012 1.09.035.484.523.797 1.055.93zm0-5.47c-.145-.058-.239-.125-.258-.156-.016-.199-.008-.55.011-.988a.86.86 0 0 0-.28-.68 1.12 1.12 0 0 0-.891-.3c-.051.003-.106.011-.157.019-.496.066-.867.441-.886.887-.012.27-.02.543-.079.804-.039.168-.156.653-.378.633-.16-.015-.274-.043-.329-.207-.039-.125-.027-.265-.023-.398.008-.278.063-.555.133-.824.113-.43-.168-.872-.64-1.004a1.302 1.302 0 0 0-.368-.051c-.195 0-.39.043-.582.129a.85.85 0 0 0-.504.734c-.02.547-.101 1.414-.754 1.567a.791.791 0 0 1-.465-.04c-.09-.039-.328-.148-.351-.253-.012-.047.008-1.743.066-3.465a.968.968 0 0 1 .125-.211l.012-.016a.844.844 0 0 1 .426-.273.767.767 0 0 1 .23-.035h5.078a.86.86 0 0 1 .864.859zm0 0M22.34 12.8h-5.88c-.917 0-1.66.743-1.66 1.66V24H24v-9.54c0-.917-.746-1.66-1.66-1.66zm.86 10.4h-7.598v-4.72c.543-.18.867-.472.902-.84.016-.16.016-.324.012-.484a10.883 10.883 0 0 0-.028-.504.208.208 0 0 1 .008-.097c.02-.051.07-.078.121-.098.2-.078.426-.07.63-.008a.313.313 0 0 1 .128.067c.066.058.04.14.047.222l.023.242c.02.165.047.329.086.493.074.312.203.62.41.867.168.2.403.348.66.394.27.047.598.012.852-.09.184-.074.348-.195.465-.355.383-.52.25-1.332.062-1.941a.335.335 0 0 1 .133-.055c.196-.047.395-.031.586.039.051.02.07.043.074.035.04.86.301 1.508.778 1.918.543.469 1.18.461 1.316.453.102 0 .215-.008.332-.027zm-.009-5.31c-.003 0-.07.047-.34.047l-.038.004s-.407.028-.739-.261c-.304-.262-.472-.72-.5-1.356-.015-.324-.242-.605-.594-.738a1.778 1.778 0 0 0-1.046-.074c-.297.066-.54.234-.668.457a.712.712 0 0 0-.063.57c.086.27.156.555.16.84.004.16-.011.363-.14.476-.137.122-.453.149-.598.04-.105-.082-.168-.207-.219-.329a2.782 2.782 0 0 1-.18-.836c-.007-.074-.011-.148-.015-.222-.023-.457-.441-.82-1.016-.887-.058-.004-.12-.012-.18-.016-.042-.003-.081-.003-.12-.003-.372 0-.72.128-.946.355a.813.813 0 0 0-.258.637c.028.41.032.746.02.945a.533.533 0 0 1-.11.078v-3.16c.004-.473.415-.855.919-.855h5.82a.86.86 0 0 1 .86.859s-.016 3.414-.009 3.43zm0 0"/>
</svg>
